small/extra/apps/standard/wps-office-wppmain.svg

<?xml version="1.0" encoding="UTF-8" standalone="no"?>
<svg
   xmlns:dc="http://purl.org/dc/elements/1.1/"
   xmlns:cc="http://creativecommons.org/ns#"
   xmlns:rdf="http://www.w3.org/1999/02/22-rdf-syntax-ns#"
   xmlns:svg="http://www.w3.org/2000/svg"
   xmlns="http://www.w3.org/2000/svg"
   xmlns:sodipodi="http://sodipodi.sourceforge.net/DTD/sodipodi-0.dtd"
   xmlns:inkscape="http://www.inkscape.org/namespaces/inkscape"
   viewBox="0 0 512 512"
   id="svg2"
   version="1.1"
   inkscape:version="0.91 r13725"
   sodipodi:docname="wps-office-wppmain.svg">
  <metadata
     id="metadata472">
    <rdf:RDF>
      <cc:Work
         rdf:about="">
        <dc:format>image/svg+xml</dc:format>
        <dc:type
           rdf:resource="http://purl.org/dc/dcmitype/StillImage" />
        <dc:title />
      </cc:Work>
    </rdf:RDF>
  </metadata>
  <sodipodi:namedview
     pagecolor="#ffffff"
     bordercolor="#666666"
     borderopacity="1"
     objecttolerance="10"
     gridtolerance="10"
     guidetolerance="10"
     inkscape:pageopacity="0"
     inkscape:pageshadow="2"
     inkscape:window-width="1366"
     inkscape:window-height="709"
     id="namedview470"
     showgrid="false"
     inkscape:zoom="0.4609375"
     inkscape:cx="418.71186"
     inkscape:cy="156.44173"
     inkscape:window-x="-2"
     inkscape:window-y="-3"
     inkscape:window-maximized="1"
     inkscape:current-layer="svg2" />
  <defs
     id="defs4" />
  <path
     inkscape:connector-curvature="0"
     d="M 26,0 C 11.603,0 0,11.603 0,26 l 0,460 c 0,14.397 11.603,26 26,26 l 460,0 c 14.397,0 26,-11.603 26,-26 L 512,26 C 512,11.603 500.397,0 486,0 L 26,0"
     style="fill:#f38725"
     id="path380280" />
  <path
     inkscape:connector-curvature="0"
     style="opacity:0.25;fill-rule:evenodd"
     d="m 59.66406,41 0,430 41,41 L 486,512 c 14.397,0 26,-11.603 26,-26 L 512,100.66016 452.33984,41 l -93.8789,0 93.8789,93.87891 0,0.0117 L 358.44922,41 l -200.10938,0 -98.66015,0 98.66015,98.66016 0,0.0156 L 59.66406,41 Z"
     id="path380336" />
  <path
     inkscape:connector-curvature="0"
     d="m 59.664,41 0,430 98.66,0 0,-145.73 195.35,0 0,0.105 98.66,0 0,-284.37 -93.88,0 -200.11,0 -98.66,0 m 98.66,98.45 195.35,0 0,87.36 -195.35,0 0,-87.36"
     style="fill:#ffffff;fill-rule:evenodd"
     id="path380364" />
</svg>

<?xml version="1.0" encoding="UTF-8" standalone="no"?>
<svg
   xmlns:dc="http://purl.org/dc/elements/1.1/"
   xmlns:cc="http://creativecommons.org/ns#"
   xmlns:rdf="http://www.w3.org/1999/02/22-rdf-syntax-ns#"
   xmlns:svg="http://www.w3.org/2000/svg"
   xmlns="http://www.w3.org/2000/svg"
   xmlns:sodipodi="http://sodipodi.sourceforge.net/DTD/sodipodi-0.dtd"
   xmlns:inkscape="http://www.inkscape.org/namespaces/inkscape"
   viewBox="0 0 512 512"
   id="svg2"
   version="1.1"
   inkscape:version="0.91+devel r13804 custom"
   sodipodi:docname="wps-office-wppmain.svg">
  <metadata
     id="metadata472">
    <rdf:RDF>
      <cc:Work
         rdf:about="">
        <dc:format>image/svg+xml</dc:format>
        <dc:type
           rdf:resource="http://purl.org/dc/dcmitype/StillImage" />
        <dc:title></dc:title>
      </cc:Work>
    </rdf:RDF>
  </metadata>
  <sodipodi:namedview
     pagecolor="#ffffff"
     bordercolor="#666666"
     borderopacity="1"
     objecttolerance="10"
     gridtolerance="10"
     guidetolerance="10"
     inkscape:pageopacity="0"
     inkscape:pageshadow="2"
     inkscape:window-width="1366"
     inkscape:window-height="709"
     id="namedview470"
     showgrid="false"
     inkscape:zoom="0.4609375"
     inkscape:cx="683.38983"
     inkscape:cy="174.88241"
     inkscape:window-x="-2"
     inkscape:window-y="-3"
     inkscape:window-maximized="1"
     inkscape:current-layer="svg2" />
  <defs
     id="defs4" />
  <path
     inkscape:connector-curvature="0"
     d="M 26,0 C 11.603,0 0,11.603 0,26 l 0,460 c 0,14.397 11.603,26 26,26 l 460,0 c 14.397,0 26,-11.603 26,-26 L 512,26 C 512,11.603 500.397,0 486,0 L 26,0"
     style="fill:#f38725"
     id="path380280" />
  <text
     sodipodi:linespacing="125%"
     y="-62.806999"
     x="-1888.83"
     line-height="125%"
     style="font-size:208.33000183px;line-height:125%;font-family:'Gentium Book Basic';letter-spacing:0;word-spacing:0"
     id="text380282">
    <tspan
       y="-62.806999"
       x="-1888.83"
       id="tspan380284" />
  </text>
  <text
     transform="scale(4.0128205,0.24920128)"
     y="-814.91583"
     x="-152.96922"
     style="font-size:75.69999695px;font-family:Arial;text-anchor:middle"
     id="text380286" />
  <text
     sodipodi:linespacing="125%"
     y="-380.97"
     x="1.293"
     line-height="125%"
     style="font-size:129.22999573px;line-height:125%;font-family:'Gentium Book Basic';letter-spacing:0;word-spacing:0"
     id="text380288">
    <tspan
       y="-380.97"
       x="1.293"
       id="tspan380290" />
  </text>
  <text
     transform="scale(4.0128205,0.24920128)"
     y="-1877.8904"
     x="197.39899"
     style="font-size:46.95399857px;font-family:Arial;text-anchor:middle"
     id="text380292" />
  <text
     sodipodi:linespacing="125%"
     y="-460.97"
     x="582.56"
     line-height="125%"
     style="font-size:129.22999573px;line-height:125%;font-family:'Gentium Book Basic';letter-spacing:0;word-spacing:0"
     id="text380294">
    <tspan
       y="-460.97"
       x="582.56"
       id="tspan380296" />
  </text>
  <text
     transform="scale(4.0128205,0.24920128)"
     y="-2198.9287"
     x="342.24826"
     style="font-size:46.95399857px;font-family:Arial;text-anchor:middle"
     id="text380298" />
  <text
     sodipodi:linespacing="125%"
     y="-642.22998"
     x="-489.01999"
     line-height="125%"
     style="font-size:129.22999573px;line-height:125%;font-family:'Gentium Book Basic';letter-spacing:0;word-spacing:0"
     id="text380300">
    <tspan
       y="-642.22998"
       x="-489.01999"
       id="tspan380302" />
  </text>
  <text
     transform="scale(4.0128205,0.24920128)"
     y="-2926.2751"
     x="75.209618"
     style="font-size:46.95399857px;font-family:Arial;text-anchor:middle"
     id="text380304" />
  <text
     sodipodi:linespacing="125%"
     y="-858.70001"
     x="609.03003"
     line-height="125%"
     style="font-size:129.22999573px;line-height:125%;font-family:'Gentium Book Basic';letter-spacing:0;word-spacing:0"
     id="text380306">
    <tspan
       y="-858.70001"
       x="609.03003"
       id="tspan380308" />
  </text>
  <text
     transform="scale(4.0128205,0.24920128)"
     y="-3794.9404"
     x="348.84821"
     style="font-size:46.95399857px;font-family:Arial;text-anchor:middle"
     id="text380310" />
  <text
     sodipodi:linespacing="125%"
     y="-938.70001"
     x="1190.3"
     line-height="125%"
     style="font-size:129.22999573px;line-height:125%;font-family:'Gentium Book Basic';letter-spacing:0;word-spacing:0"
     id="text380312">
    <tspan
       y="-938.70001"
       x="1190.3"
       id="tspan380314" />
  </text>
  <text
     transform="scale(4.0128205,0.24920128)"
     y="-4115.9692"
     x="493.69748"
     style="font-size:46.95399857px;font-family:Arial;text-anchor:middle"
     id="text380316" />
  <text
     sodipodi:linespacing="125%"
     y="-1411.1"
     x="801.17999"
     line-height="125%"
     style="font-size:129.22999573px;line-height:125%;font-family:'Gentium Book Basic';letter-spacing:0;word-spacing:0"
     id="text380318">
    <tspan
       y="-1411.1"
       x="801.17999"
       id="tspan380320" />
  </text>
  <text
     transform="scale(4.0128205,0.24920128)"
     y="-6011.6094"
     x="396.72797"
     style="font-size:46.95399857px;font-family:Arial;text-anchor:middle"
     id="text380322" />
  <text
     sodipodi:linespacing="125%"
     y="-1491.11"
     x="1382.4399"
     line-height="125%"
     style="font-size:129.22999573px;line-height:125%;font-family:'Gentium Book Basic';letter-spacing:0;word-spacing:0"
     id="text380324">
    <tspan
       y="-1491.11"
       x="1382.4399"
       id="tspan380326" />
  </text>
  <text
     transform="scale(4.0128205,0.24920128)"
     y="-6332.6479"
     x="541.57727"
     style="font-size:46.95399857px;font-family:Arial;text-anchor:middle"
     id="text380328" />
  <text
     sodipodi:linespacing="125%"
     y="-76.389999"
     x="-450.35999"
     line-height="125%"
     style="font-size:208.33000183px;line-height:125%;font-family:'Gentium Book Basic';letter-spacing:0;word-spacing:0"
     id="text380330">
    <tspan
       y="-76.389999"
       x="-450.35999"
       id="tspan380332" />
  </text>
  <path
     style="fill-rule:evenodd;opacity:0.25"
     d="M 59.664062 41 L 59.664062 471 L 100.66406 512 L 486 512 C 500.397 512 512 500.397 512 486 L 512 100.66016 L 452.33984 41 L 358.46094 41 L 452.33984 134.87891 L 452.33984 134.89062 L 358.44922 41 L 158.33984 41 L 59.679688 41 L 158.33984 139.66016 L 158.33984 139.67578 L 59.664062 41 z "
     id="path380336" />
  <path
     inkscape:connector-curvature="0"
     d="m 59.664,41 0,430 98.66,0 0,-145.73 195.35,0 0,0.105 98.66,0 0,-284.37 -93.88,0 -200.11,0 -98.66,0 m 98.66,98.45 195.35,0 0,87.36 -195.35,0 0,-87.36"
     style="fill:#ffffff;fill-rule:evenodd"
     id="path380364" />
</svg>
